X: 42260
T: Wearied Lad, The
R: slide
M: 12/8
K: Gmajor
D|G2A BAG AGF GFD|G2A BdB cAG F2D|
G2A BAG AGF GFD|=fag fed cA^F G2||
A|ded dcA d2G G2A|ded dcA cAG FGA|
ded dcA d2G G2 d/e/|=fag fed cA^F G2||
d|gab a2 g a2g g2d|gab a2g a2g f2d|
gab a2g a2g g2d/e/|=fag fed cA^F G2||
G/A/|B/c/BG A/c/AG d2G G2A|B/c/BG A/c/AG cAG FGA|
_BAG AGF GFD =FGA|=fag fed cA^F G2||

